X:1
T:St. Gabriel (Ouseley), 88.84
T:St. Gabriel (Ouseley), 88.84
T:Frederick Arthur Gore Ouseley, 1868
T:Public Domain Courtesy of the Cyber Hymnal™
C:Frederick Arthur Gore Ouseley, 1868
Z:Public Domain
Z:Courtesy of the Cyber Hymnal™
%%score ( 1 2 ) ( 3 4 )
L:1/8
Q:1/4=110
M:4/4
K:Eb
V:1 treble 
V:2 treble 
V:3 bass 
V:4 bass 
V:1
 [EG]2 | [EB]2 [EA]2 [EG]2 [EA]2 | G3 z F E2 [_DE]2 | c2 [=EB]2 [FA]2 [FB]2 | %4
 [EG]2 [E=A]2 [DB]2 [_DB]2 | [CB]2 [CG]2 [CA]2 F2 | [FG]2 [=EG]2 [FA]2 [DG]2 | E4 F4 | _E6 |] %9
V:2
 x2 | x8 | E2 (E2 E2) x3 | (CD) x6 | x8 | x6 F2 | x8 | E4- (E2 D2) | _E6 |] %9
V:3
 [E,E]2 | [E,D]2 [E,C]2 [E,B,]2 [A,,C]2 | [B,,B,]2 [B,,A,]2 [C,G,]2 [G,B,]2 x | %3
 A,2 [G,B,]2 [F,C]2 [D,B,]2 | B,2 [C,C]2 [B,,F,]2 [B,,F,]2 | [C,=E,]2 [E,G,]2 F,2 [A,,C]2 | %6
 [B,,_D]2 [C,C]2 [F,C]2 [G,=B,]2 | (C2 G,2) [B,,A,]4 | [E,G,]6 |] %9
V:4
 x2 | x8 | x9 | A,2 x6 | (E,D,) x6 | x4 F,2 x2 | x8 | C,4 x4 | x6 |] %9

